!!!!SEGMENT: pl-sa--l-1636--094_anonim--sanctissima-mater-dei.krn
!!!cenid: 17xx:801
!!!COM: Anonim
!!!COM-rismid: pe30004985
!!!CDT:
!!!CNT:
!!!OTL: Sanctissima Mater Dei
!!!PDT:
!!!AGN: Sacred
!!!SMS-siglum: PL-SA
!!!SMS-shelfmark: L 1636
!!!SMS-shelfwork: 094 W
!!!SMS-variant:
!!!SMS-altvar:
!!!NIFC-rismid: 1001087446
!!!URL-scan: http://repozytorium.nifc.pl/skany/pl-sa-nut--l1636
!!!ONB-nifc: 44v, skan 0040, s. 1-2
!!!key:
**kern	**kern
*part1	*part1
*staff2	*staff1
*Iempty	*Iempty
*I"	*I"
*I'keyb	*I'keyb
*clefF4	*clefC1
*k[b-]	*k[b-]
*g:dor	*g:dor
*M2/2	*M2/2
*met(c|)	*met(c|)
=1	=1
*	*^
*2\right	*2\right	*2\right
!	!LO:TX:b:i:t=Sanctissima Mater Dei.	!
!	!LO:TX:a:t=P:problem=wszystkie caudy z prawej strony	!
2G\	2b-/	2g\
16G\LL	4b-/	4g\
16F\	.	.
16E\	.	.
16D\JJ	.	.
!LO:TX:a:t=P:problem=mixed beam	!	!
8C/L	4cc/	4a\
8F\J	.	.
*	*v	*v
=2	=2
2F 2D 2BB-/	2dd 2b- 2f/
8BB-/L	2dd 2b- 2f/
8C/	.
8D/	.
8E/J	.
=3	=3
*	*^
*^	*	*
16F\LL	2ryy	4cc/	4a\
16G\	.	.	.
16A\	.	.	.
16F#X\JJ	.	.	.
!LO:TX:a:t=P:problem=mixed beam	!	!	!
8G\L	.	8b-/L	8g\L
8C/J	.	16cc/L	16a\L
.	.	16b-/JJ	16g\JJ
!LO:TX:a:t=P:problem=# above	!	!	!
2D#/	2DD/	2a/ 2f#X	2ryy
*v	*v	*	*
=4	=4	=4
8BB-/L	2dd/ 2b-	2ryy
8C/	.	.
8D/	.	.
8E/J	.	.
16F\LL	4cc/	4a\
16G\	.	.
16A\	.	.
16F\JJ	.	.
!LO:SIC:s=16G	!	!
16G#\LL	8b-/L	8g\L
16F\	.	.
16E\	16cc/L	16a\L
16C\JJ	16b-/JJ	16g\JJ
*	*v	*v
=5	=5
*^	*
2D/	2DD/	2a 2f#X/
2D/	2DD/	2a 2f#X/
*v	*v	*
=6	=6
*	*^
4G\	4b-/	4g\
4F\	4cc/	4a 4f\
2BB-/	2dd/	2b- 2f\
!!LO:LB:g=original
=7	=7	=7
2BB-/	2dd/	2b-\
!LO:TX:a:t=P: dziura:problem	!	!
8F\L	4cc/	4a\
8F#X\J	.	.
!LO:TX:a:t=P:problem=mixed beam	!	!
8G\L	8b-/L	8g\L
8C/J	16cc/L	16a\L
.	16b-/JJ	16g\JJ
*	*v	*v
=8	=8
*^	*
*	*	*^
2D/	2DD/	2a 2f#X/	2ryy
!LO:SIC:s=4FF#	!	!	!
4FF/	2ryy	2cc/	2a\
4F#\	.	.	.
*v	*v	*	*
=9	=9	=9
4G\	4dd/	4b-\
4C/	8b-/L	4g\
.	8cc/J	.
!	!LO:N:vis=2	!
4D/	4a/	8g\L
.	.	16f\L
.	.	16e\JJ
4DD/	4f#X/	8d\L
.	.	8c\J
*	*v	*v
=10	=10
!LO:N:n=3:acc=#	!LO:N:n=3:acc=#
1G 1D 1BBn 1GG	1g 1d 1Bn
!LO:TX:a:t=P:problem=utwór kończy się kreską z obustronną repetycją	!
==	==
*-	*-
!!!system-decoration: [(s1,s2)]
!!!RDF**kern: > = above
!!!RDF**kern: < = below
!!!EED: Mateusz Mrugas
!!!EST: 2020-12-09
!!!AIN: 1 empty
!!!ENC: Marta Chmielewska
!!!END: 2020-06-13
